assets/icons/Cash.svg

<svg fill="none" height="15" viewBox="0 0 22 15" width="22" xmlns="http://www.w3.org/2000/svg"><path clip-rule="evenodd" d="m15.6436 5.91549c0 .35071-.2792.63381-.6227.63381h-1.0378c-.3435 0-.6216-.2831-.6216-.63381 0-.3507.2781-.6338.6216-.6338h1.0378c.3435 0 .6227.2831.6227.6338zm-10.11843 0c0 .35071-.27813.63381-.62267.63381h-1.03779c-.34454 0-.62163-.2831-.62163-.63381 0-.3507.27709-.6338.62163-.6338h1.03779c.34454 0 .62267.2831.62267.6338zm5.99323 0c0 1.1662-.9288 2.11268-2.0756 2.11268-1.14571 0-2.07557-.94648-2.07557-2.11268 0-1.16619.92986-2.11267 2.07557-2.11267 1.1468 0 2.0756.94648 2.0756 2.11267zm9.2373 7.39441c0 .2292-.191.4225-.4162.4225h-15.56673c-.22416 0-.41511-.1933-.41511-.4225v-1.4789h12.86854c.9153 0 1.6604-.7574 1.6604-1.6902v-5.70418h1.4529c.2252 0 .4162.19331.4162.42254zm-19.09628-2.7465c-.22831 0-.41512-.1891-.41512-.4226v-8.45066c0-.23345.18681-.42253.41512-.42253h15.56678c.2293 0 .4161.18908.4161.42253v8.45066c0 .2335-.1868.4226-.4161.4226zm18.68008-7.39439h-1.4529v-1.47887c0-.932746-.7451-1.69014-1.6604-1.69014h-15.56678c-.915328 0-1.65942.757394-1.65942 1.69014v8.45066c0 .9328.744092 1.6902 1.65942 1.6902h1.45393v1.4789c0 .9327.7441 1.6901 1.65942 1.6901h15.56673c.9154 0 1.6605-.7574 1.6605-1.6901v-8.45075c0-.93274-.7451-1.69014-1.6605-1.69014z" fill="#ff7643" fill-rule="evenodd"/></svg>

<svg width="22" height="15" viewBox="0 0 22 15" fill="none" xmlns="http://www.w3.org/2000/svg">
<path fill-rule="evenodd" clip-rule="evenodd" d="M15.6436 5.91549C15.6436 6.2662 15.3644 6.5493 15.0209 6.5493H13.9831C13.6396 6.5493 13.3615 6.2662 13.3615 5.91549C13.3615 5.56479 13.6396 5.28169 13.9831 5.28169H15.0209C15.3644 5.28169 15.6436 5.56479 15.6436 5.91549ZM5.52517 5.91549C5.52517 6.2662 5.24704 6.5493 4.9025 6.5493H3.86471C3.52017 6.5493 3.24308 6.2662 3.24308 5.91549C3.24308 5.56479 3.52017 5.28169 3.86471 5.28169H4.9025C5.24704 5.28169 5.52517 5.56479 5.52517 5.91549ZM11.5184 5.91549C11.5184 7.08169 10.5896 8.02817 9.4428 8.02817C8.29709 8.02817 7.36723 7.08169 7.36723 5.91549C7.36723 4.7493 8.29709 3.80282 9.4428 3.80282C10.5896 3.80282 11.5184 4.7493 11.5184 5.91549ZM20.7557 13.3099C20.7557 13.5391 20.5647 13.7324 20.3395 13.7324H4.77277C4.54861 13.7324 4.35766 13.5391 4.35766 13.3099V11.831H17.2262C18.1415 11.831 18.8866 11.0736 18.8866 10.1408V4.43662H20.3395C20.5647 4.43662 20.7557 4.62993 20.7557 4.85916V13.3099ZM1.65942 10.5634C1.43111 10.5634 1.2443 10.3743 1.2443 10.1408V1.69014C1.2443 1.45669 1.43111 1.26761 1.65942 1.26761H17.2262C17.4555 1.26761 17.6423 1.45669 17.6423 1.69014V10.1408C17.6423 10.3743 17.4555 10.5634 17.2262 10.5634H1.65942ZM20.3395 3.16901H18.8866V1.69014C18.8866 0.757394 18.1415 0 17.2262 0H1.65942C0.744092 0 0 0.757394 0 1.69014V10.1408C0 11.0736 0.744092 11.831 1.65942 11.831H3.11335V13.3099C3.11335 14.2426 3.85745 15 4.77277 15H20.3395C21.2549 15 22 14.2426 22 13.3099V4.85915C22 3.92641 21.2549 3.16901 20.3395 3.16901Z" fill="#FF7643"/>
</svg>
